X:1
T:Gazaremsan
R:Polska
O:Gstrikland
S:efter Lrsk-Olle
N:Frn Stenstra Sandviken
M:3/4
L:1/16
K:Dm
A2B^c d^cde fefg|a3g e2f d2^c2|A2B^c d^cde fefa|g2f2 f2e2 e4:|
K:D
|:A2d2 d2c2 c2B2|B3A GFGB A4|D3E F4 F4|E3D ^CDEF D4-|
D2d2- d2c2 c2B2|B3A GFGB A4|A2B^c d^cde fefg|a2^c2 d8:|
